X: 19690
T: Jenny Dang The Weaver
R: reel
M: 4/4
K: Dmajor
B2 (3BcB B2dB|ABdf (3gfe dB|A2 (3AcA A2dB|ABdf gfed|
eB~B2 ~B2dB|ABdf (3gfe df|eA~A2 ~A2dB|ABdf gfec||
d2fd ef (3gfe|defd ~g2fe|d2fd efgf|eaaf gfec|
d2fd ef (3gfe|defd ~g3a|bgaf (3gfe fd|(3Bcd ef gfed||

